actions/24/edit-table-insert-row-above.svg

<svg xmlns="http://www.w3.org/2000/svg" viewBox="0 0 24 24" width="24" height="24">
  <defs id="defs3051">
    <style type="text/css" id="current-color-scheme">.ColorScheme-Text {color:#fcfcfc;}.ColorScheme-Highlight {color:#3daee9;}</style>
  </defs>
  <g transform="translate(1,1)">
    <path style="fill:currentColor;fill-opacity:1;stroke:none" d="m 3,3 v 6 c 0,0 0,4 0,7 0,3 3,3 3,3 h 10 c 0,0 3,0 3,-3 0,-3 0,-7 0,-7 h -1 v 4 H 16 V 9 h -1 v 4 H 13 V 9 3 h -1 v 6 4 H 10 V 9 H 9 v 4 H 7 V 9 H 6 v 4 H 5 4 V 9 3 Z M 16.5,3 14,8 h 5 z M 4,14 h 1 1 v 1 3 c 0,0 -2,0 -2,-2 0,-2 0,-2 0,-2 z m 3,0 h 2 v 4 H 7 v -3 z m 3,0 h 2 v 4 h -2 z m 3,0 h 2 v 1 3 h -2 z m 3,0 H 17.099609 18 c 0,0 0,0 0,2 0,2 -2,2 -2,2 v -3 z" class="ColorScheme-Text"/>
    <path style="fill:currentColor;fill-opacity:1;stroke:none" d="M 3 3 L 3 9 L 4 9 L 9.2929688 9 L 12 9 L 13 9 L 13 3 L 12 3 L 4 3 L 3 3 z M 4 4 L 4.2929688 4 L 8.2929688 8 L 4 8 L 4 4 z M 5.7070312 4 L 8.2929688 4 L 12 7.7070312 L 12 8 L 9.7070312 8 L 5.7070312 4 z M 9.7070312 4 L 12 4 L 12 6.2929688 L 9.7070312 4 z " class="ColorScheme-Highlight"/>
  </g>
</svg>

<svg xmlns="http://www.w3.org/2000/svg" viewBox="0 0 24 24" width="24" height="24">
  <defs id="defs3051">
    <style type="text/css" id="current-color-scheme">
      .ColorScheme-Text {
        color:#eff0f1;
      }
      .ColorScheme-Highlight {
        color:#3daee9;
      }
      </style>
  </defs>
  <g transform="translate(1,1)">
    <path style="fill:currentColor;fill-opacity:1;stroke:none" d="M 3 3 L 3 9 L 3 19 L 4 19 L 19 19 L 19 18 L 19 9 L 18 9 L 18 13 L 16 13 L 16 9 L 15 9 L 15 13 L 13 13 L 13 9 L 13 3 L 12 3 L 12 9 L 12 13 L 10 13 L 10 9 L 9 9 L 9 13 L 7 13 L 7 9 L 6 9 L 6 13 L 5 13 L 4 13 L 4 9 L 4 3 L 3 3 z M 16.5 3 L 14 8 L 19 8 L 16.5 3 z M 4 14 L 5 14 L 6 14 L 6 15 L 6 18 L 4 18 L 4 14 z M 7 14 L 9 14 L 9 18 L 7 18 L 7 15 L 7 14 z M 10 14 L 12 14 L 12 18 L 10 18 L 10 14 z M 13 14 L 15 14 L 15 15 L 15 18 L 13 18 L 13 14 z M 16 14 L 17.099609 14 L 18 14 L 18 18 L 16 18 L 16 15 L 16 14 z " class="ColorScheme-Text"/>
    <path style="fill:currentColor;fill-opacity:1;stroke:none" d="M 3 3 L 3 9 L 4 9 L 9.2929688 9 L 12 9 L 13 9 L 13 3 L 12 3 L 4 3 L 3 3 z M 4 4 L 4.2929688 4 L 8.2929688 8 L 4 8 L 4 4 z M 5.7070312 4 L 8.2929688 4 L 12 7.7070312 L 12 8 L 9.7070312 8 L 5.7070312 4 z M 9.7070312 4 L 12 4 L 12 6.2929688 L 9.7070312 4 z " class="ColorScheme-Highlight"/>
  </g>
</svg>
